X: 24
T: Wind That Shakes The Barley, The
Z: jdogbishop96
S: https://thesession.org/tunes/116#setting48124
R: reel
M: 4/4
L: 1/8
K: Dmaj
B|:"D"A2AB AFED|"G"B2BA BcdB|"D"A2AB AFED|1 "A"gfed "G"BcdB:|2 "G"gfed "A"Bcde||
"D"f2fd "G"g2ge|"D"f2fd "A"Bcde|"D"f2fd "G"g2fg|"A"afed Bcde|
"D"f2fd "G"g2ge|"D"f2fd "A"Bcde|"D"defg "A"afba|"G"gfed BcdB||

